packages/symbols/svgs/outline/todo-outline.svg

<svg width="24" height="24" viewBox="0 0 24 24" fill="none" xmlns="http://www.w3.org/2000/svg">
<path fill-rule="evenodd" clip-rule="evenodd" d="M6 13C6 12.4477 6.44772 12 7 12H17C17.5523 12 18 12.4477 18 13C18 13.5523 17.5523 14 17 14H7C6.44772 14 6 13.5523 6 13Z" fill="black"/>
<path fill-rule="evenodd" clip-rule="evenodd" d="M6 18C6 17.4477 6.44772 17 7 17H17C17.5523 17 18 17.4477 18 18C18 18.5523 17.5523 19 17 19H7C6.44772 19 6 18.5523 6 18Z" fill="black"/>
<path fill-rule="evenodd" clip-rule="evenodd" d="M7 0C6.44772 0 6 0.447715 6 1H2C1.44772 1 1 1.44772 1 2V23C1 23.5523 1.44772 24 2 24H22C22.5523 24 23 23.5523 23 23V2C23 1.44772 22.5523 1 22 1H18C18 0.447715 17.5523 0 17 0H7ZM18 3H21V22H3V3H6V7C6 7.55228 6.44772 8 7 8H10C10.5523 8 11 7.55228 11 7C11 6.44728 11.4473 6 12 6C12.5527 6 13 6.44728 13 7C13 7.55228 13.4477 8 14 8H17C17.5523 8 18 7.55228 18 7V3ZM8 2V6H9.1706C9.58229 4.83462 10.6934 4 12 4C13.3066 4 14.4177 4.83462 14.8294 6H16V2H8Z" fill="black"/>
</svg>

<svg width="24" height="24" viewBox="0 0 24 24" xmlns="http://www.w3.org/2000/svg"><path fill-rule="evenodd" clip-rule="evenodd" d="M6 13a1 1 0 0 1 1-1h10a1 1 0 1 1 0 2H7a1 1 0 0 1-1-1Zm0 5a1 1 0 0 1 1-1h10a1 1 0 1 1 0 2H7a1 1 0 0 1-1-1Z"/><path fill-rule="evenodd" clip-rule="evenodd" d="M7 0a1 1 0 0 0-1 1H2a1 1 0 0 0-1 1v21a1 1 0 0 0 1 1h20a1 1 0 0 0 1-1V2a1 1 0 0 0-1-1h-4a1 1 0 0 0-1-1H7Zm11 3h3v19H3V3h3v4a1 1 0 0 0 1 1h3a1 1 0 0 0 1-1 1 1 0 1 1 2 0 1 1 0 0 0 1 1h3a1 1 0 0 0 1-1V3ZM8 2v4h1.17a3 3 0 0 1 5.66 0H16V2H8Z"/></svg>
